X: 20631
T: ARIA
C: Auber.
Q: "Moderate."
%R: air, waltz, jig
B: W. Hamilton "Universal Tune-Book" Vol. 2 Glasgow 1846 p.63 #1
S: http://s3-eu-west-1.amazonaws.com/itma.dl.printmaterial/book_pdfs/hamiltonvol2web.pdf
Z: 2016 John Chambers <jc:trillian.mit.edu>
M: 6/8
L: 1/8
K: G
% - - - - - - - - - - - - - - - - - - - - - - - - -
G |\
(F2d) (E2c) | (D2B) (C2A) | BGF EBA | (EF/G/E/F/) D2G |\
(F2d) (E2c) | (D2B) (C2A) | BGF EBA | D2z z2E |\
G3 ABc | ^cdB g3 | BcA d3 | BcA G2D |\
G3 ABc | ^cdB g3 |
BcA d3 | BcA B2G |\
(F2d) (E2c) | D3 EFG | G2G GAD | d3 (dc/B/c/A/) |\
d3 (dc/B/c/A/) | dBd g3 | EAB dcB | d3 (dc/B/c/A) |\
d3 (dc/B/c/A/) | dBd g3 | EAB dcA | G3- G2 |]
% - - - - - - - - - - - - - - - - - - - - - - - - -

%%sep 1 1 500
%%sep 1 1 500

